!!!COM: Jules Massenet
!!!CNT: Francais
!!!TXO: Francais
!!!OTL: Souvenir de Venise
!!!LYR: Alfred de Musset
!!!ENC: Jacob Pegg
!!!YOR: Romantic French Song 1830-1870 - David Tunley, ed.,
!!!YOR: New York: Garland Publishing, Inc., 1995, Vol. 6
!!!ODT: 1872/
!!NB: Vocal melody and text only encoded.
!!NB: First instance of melodic material only encoded.
**kern	**silbe
*clef G2	*
*k[f#c#g#]	*
*M3/8	*
!!created: 12/24/03 14:02
!!proofed and posted: 1/22/04 9:52
!!edit time: 34 min.
=1	=1
4.r	.
=2	=2
8.r	.
8.r	.
=3	=3
4.r	.
=4	=4
{8cc#	{A
8cc#	saint
[8cc#	Blai-
=5	=5
8cc#]	|
8b	-se a\
8a	la
=6	=6
8cc#	Zuec-
8b	-ca
8a	Vous
=7	=7
8g#	e/-
4e}	-tiez,}
=8	=8
{8dd	{vous
8dd	e/-
8dd	-tiez
=9	=9
(16dd	bien
16cc#)	|
8b	ai-
8b	-se/,
=10	=10
(16e	A
16g#)	|
(16f#	|
16a)	|
(16g#	Saint
16b)	|
=11	=11
8a	Blai-
8e}	-se,}
8r	.
!! melody repeats. 
=20	=20
{8cc#	{nous
8cc#	e/-
[8cc#	-tions
=21	=21
8cc#]	|
8b	a\
8a	la
=22	=22
8cc#	Zuec-
8cc#	-ca
[8cc#	nous
=23	=23
8cc#]	|
8b	e/-
8a	-tions
=24	=24
8g#	bien
[4e#	la\!
=25	=25
4.e#_	|
=26	=26
8e#]}	|}
4r	.
=27	=27
4.r	.
=28	=28
{(g#q	{la!
[4.cc#)	|
=29	=29
4.cc#_	|
=30	=30
4cc#;]}	|}
8r;	.
=31	=31
{(4c#	{Mais
8cc#)	|
=32	=32
4cc#	de
8b	vous
=33	=33
8a	en
8cc#	sou-
8a	-ve-
=34	=34
4.g#	-nir,
=35	=35
4a	Pren-
8a	-drez~
=36	=36
(8dd	~vous
8cc#)	|
8dd	la
=37	=37
4.b	pei-
=38	=38
4cc#}	-ne?}
8r	.
=39	=39
{4c#	{Pren-
8c#	-drez~
=40	=40
(8a	~vous
8g#)	|
8a	la
=41	=41
4.f#	pei-
=42	=42
4e#}	-ne?}
8r	.
=43	=43
{(4c#	{Mais
8cc#)	|
=44	=44
4cc#	de
8b	vous
=45	=45
8a#	en
8cc#	sou-
8a#	-ve-
=46	=46
4.dd#}	-nir}
=47	=47
{4f#	{Et
8f#	d’y
=48	=48
4f#	re-
8an	-ve-
=49	=49
[4.b	-nir.
=50	=50
4.b_	|
=51	=51
4b_	|
8b_	|
=52	=52
4.b]}	|}
!! first melody repeats
=69	=69
{8cc#	{Vi-
8cc#	-vre
[8cc#	la!
=70	=70
8cc#]	|
8b	A
8a	la
=71	=71
8ccn	Zuec-
8ccn	-ca
[8ccn	vivre
=72	=72
8ccn]	|
8b	et
8a	mou-
=73	=73
8gn	-rir
[4e	la\!
=74	=74
4.e_	|
=75	=75
4.e]}	|}
=76	=76
8r	.
{8e	{A
8e	saint
=77	=77
(16e	Blaise
16g#)	|
(16f#	a\
16a)	|
(16g#	la
16b)	|
=78	=78
8a	Zuec-
4e}	-ca,}
!!79-80 = 77-78
=81	=81
{(16e	{A
16g#)	|
(16f#	la
16a)	|
(16g#	Zuec-
16b)	|
=82	=82
(16e	-ca
16g#)	|
(16f#	vi-
16a)	|
(16g#	-vre
16b)	|
=83	=83
[4.ee	la\!
=84	=84
4.ee_	|
=85	=85
4.ee]}	|}
=86	=86
8r	.
{8e	{a\
8e	la
=87	=87
(16ee	Zuec-
16dd)	|
[4cc#	-ca!
=88	=88
4.cc#_	|
=89	=89
8cc#]}	|}
4r;	.
*-	*-
